tools/download-figma-icons/icons/outlined-medium/sun-moon.svg

<svg width="24" height="24" viewBox="0 0 24 24" fill="none" xmlns="http://www.w3.org/2000/svg">
<path fill-rule="evenodd" clip-rule="evenodd" d="M8.1003 3.08343C7.6863 3.08343 7.3503 2.74818 7.3503 2.33343V0.750179C7.3503 0.335429 7.6863 0.000178746 8.1003 0.000178746C8.5143 0.000178746 8.8503 0.335429 8.8503 0.750179V2.33343C8.8503 2.74818 8.5143 3.08343 8.1003 3.08343ZM4.1328 8.10049C4.1328 5.90899 5.9088 4.13299 8.1003 4.13299C10.2918 4.13299 12.0685 5.90899 12.0685 8.10049C12.0685 10.292 10.2918 12.068 8.1003 12.068C5.9088 12.068 4.1328 10.292 4.1328 8.10049ZM10.5685 8.10049C10.5685 6.73999 9.4608 5.63299 8.1003 5.63299C6.7398 5.63299 5.6328 6.73999 5.6328 8.10049C5.6328 9.46099 6.7398 10.568 8.1003 10.568C9.4608 10.568 10.5685 9.46099 10.5685 8.10049ZM17.5004 22.4632C16.4107 22.4632 15.3689 22.104 14.5237 21.4695C18.1387 21.5205 21.1079 18.6165 21.1079 15.0135C21.1079 14.679 21.0824 14.3467 21.0314 14.019C21.9299 14.9257 22.4579 16.1662 22.4579 17.5065C22.4579 20.2395 20.2334 22.4632 17.5004 22.4632ZM11.8762 20.6812C13.0192 22.7055 15.1747 23.9632 17.5004 23.9632C21.0607 23.9632 23.9579 21.0667 23.9579 17.5065C23.9579 14.8485 22.3649 12.495 19.8989 11.511C19.6019 11.3917 19.2644 11.4742 19.0552 11.715C18.8459 11.955 18.8114 12.3015 18.9689 12.579C19.3867 13.3117 19.6079 14.154 19.6079 15.0135C19.6079 17.7465 17.3834 19.971 14.6497 19.971C14.0099 19.971 13.3912 19.8517 12.8099 19.617C12.5144 19.4954 12.1754 19.5787 11.9654 19.8172C11.7554 20.0572 11.7194 20.4037 11.8762 20.6812ZM3.49229 4.55269C3.63854 4.69894 3.83054 4.77244 4.02254 4.77244C4.21454 4.77244 4.40654 4.69894 4.55354 4.55269C4.84604 4.25944 4.84604 3.78469 4.55279 3.49219L3.43304 2.37319C3.13979 2.07994 2.66504 2.07994 2.37179 2.37319C2.07929 2.66569 2.07929 3.14119 2.37254 3.43369L3.49229 4.55269ZM2.33325 8.85055H0.75C0.336 8.85055 0 8.5153 0 8.10055C0 7.6858 0.336 7.35055 0.75 7.35055H2.33325C2.74725 7.35055 3.08325 7.6858 3.08325 8.10055C3.08325 8.5153 2.74725 8.85055 2.33325 8.85055ZM2.37166 13.8281C2.51866 13.9743 2.71066 14.0478 2.90266 14.0478C3.09466 14.0478 3.28666 13.9743 3.43291 13.8281L4.55266 12.7091C4.84591 12.4166 4.84591 11.9411 4.55341 11.6486C4.26016 11.3553 3.78541 11.3553 3.49216 11.6486L2.37241 12.7676C2.07916 13.0601 2.07916 13.5348 2.37166 13.8281ZM8.1003 16.2012C7.6863 16.2012 7.3503 15.8659 7.3503 15.4512V13.8679C7.3503 13.4532 7.6863 13.1179 8.1003 13.1179C8.5143 13.1179 8.8503 13.4532 8.8503 13.8679V15.4512C8.8503 15.8659 8.5143 16.2012 8.1003 16.2012ZM12.7677 13.8281C12.914 13.9743 13.106 14.0478 13.298 14.0478C13.49 14.0478 13.682 13.9743 13.8282 13.8281C14.1215 13.5348 14.1215 13.0608 13.8282 12.7676L12.7085 11.6486C12.416 11.3553 11.9405 11.3553 11.648 11.6486C11.3555 11.9411 11.3555 12.4158 11.648 12.7091L12.7677 13.8281ZM15.4509 8.85055H13.8676C13.4529 8.85055 13.1176 8.5153 13.1176 8.10055C13.1176 7.6858 13.4529 7.35055 13.8676 7.35055H15.4509C15.8649 7.35055 16.2009 7.6858 16.2009 8.10055C16.2009 8.5153 15.8649 8.85055 15.4509 8.85055ZM11.6482 4.55269C11.7944 4.69894 11.9864 4.77244 12.1784 4.77244C12.3704 4.77244 12.5624 4.69894 12.7087 4.55269L13.8284 3.43369C14.1209 3.14044 14.1209 2.66569 13.8284 2.37319C13.5352 2.07994 13.0604 2.07994 12.7679 2.37319L11.6482 3.49219C11.3549 3.78544 11.3549 4.25944 11.6482 4.55269Z" fill="black"/>
</svg>

<svg width="24" height="24" viewBox="0 0 24 24" fill="none" xmlns="http://www.w3.org/2000/svg"><path fill-rule="evenodd" clip-rule="evenodd" d="M8.1 3.083a.75.75 0 0 1-.75-.75V.75a.75.75 0 1 1 1.5 0v1.583a.75.75 0 0 1-.75.75ZM4.133 8.1a3.967 3.967 0 1 1 7.936 0 3.968 3.968 0 0 1-7.936 0Zm6.436 0A2.471 2.471 0 0 0 8.1 5.633 2.47 2.47 0 0 0 5.633 8.1 2.47 2.47 0 0 0 8.1 10.568 2.471 2.471 0 0 0 10.57 8.1ZM17.5 22.463a4.96 4.96 0 0 1-2.976-.994c3.615.051 6.584-2.853 6.584-6.456 0-.334-.026-.666-.077-.994a4.963 4.963 0 0 1-3.531 8.444Zm-5.624-1.782a6.468 6.468 0 0 0 5.624 3.282 6.465 6.465 0 0 0 6.458-6.457 6.422 6.422 0 0 0-4.06-5.995.75.75 0 0 0-.93 1.068 4.91 4.91 0 0 1 .64 2.434 4.964 4.964 0 0 1-4.958 4.958 4.89 4.89 0 0 1-1.84-.354.751.751 0 0 0-.934 1.064ZM3.492 4.553a.748.748 0 0 0 1.062 0 .75.75 0 0 0-.001-1.06l-1.12-1.12a.75.75 0 1 0-1.06 1.06l1.12 1.12ZM2.333 8.85H.75a.75.75 0 1 1 0-1.5h1.583a.75.75 0 1 1 0 1.5Zm.039 4.977a.751.751 0 0 0 1.06 0l1.12-1.119a.75.75 0 1 0-1.06-1.06l-1.12 1.119a.75.75 0 0 0 0 1.06ZM8.1 16.201a.75.75 0 0 1-.75-.75v-1.583a.75.75 0 1 1 1.5 0v1.583a.75.75 0 0 1-.75.75Zm4.668-2.373a.748.748 0 0 0 1.06 0 .75.75 0 0 0 0-1.06l-1.12-1.12a.75.75 0 1 0-1.06 1.061l1.12 1.12Zm2.683-4.977h-1.583a.75.75 0 1 1 0-1.5h1.583a.75.75 0 1 1 0 1.5Zm-3.803-4.298a.748.748 0 0 0 1.06 0l1.12-1.12a.75.75 0 0 0-1.06-1.06l-1.12 1.12a.75.75 0 0 0 0 1.06Z" fill="currentColor"/></svg>
